kora/actions/scalable/text_outer_style.svg

<svg xmlns="http://www.w3.org/2000/svg" style="fill-rule:evenodd;clip-rule:evenodd;stroke-linejoin:round;stroke-miterlimit:2" width="100%" height="100%" version="1.1" viewBox="0 0 16 16" xml:space="preserve">
 <defs>
  <style id="current-color-scheme" type="text/css">
   .ColorScheme-Text { color:#dfdfdf; } .ColorScheme-Highlight { color:#4285f4; } .ColorScheme-NeutralText { color:#ff9800; } .ColorScheme-PositiveText { color:#4caf50; } .ColorScheme-NegativeText { color:#f44336; }
  </style>
 </defs>
 <path style="fill:currentColor;fill-opacity:0.3" class="ColorScheme-Text" d="M12,0l0,1l3,0l0,14l-14,0l0,-10l-1,0l0,11l16,0l0,-16l-4,0Z"/>
 <path style="fill:currentColor" class="ColorScheme-Text" d="M8,8l0,1l2,0l0,4l1,0l0,-4l2,0l0,-1l-5,0Zm-8,-7l0,2l4,0l0,8l2,0l0,-8l4,0l0,-2l-10,0Z"/>
</svg>

<svg xmlns="http://www.w3.org/2000/svg" width="16" height="16" version="1.1">
 <defs>
  <style id="current-color-scheme" type="text/css">
   .ColorScheme-Text { color:#dfdfdf; } .ColorScheme-Highlight { color:#4285f4; }
  </style>
 </defs>
 <path style="fill:currentColor" class="ColorScheme-Text" d="M 8,8 V 9 H 10 V 13 H 11 V 9 H 13 V 8 Z M 0,1 V 3 H 4 V 11 H 6 V 3 H 10 V 1 Z M 12,0 V 1 H 15 V 15 H 1 V 5 H 0 V 16 H 16 V 0 Z"/>
</svg>
